X:76
T:Unnamed Reel
M:4/4
L:1/8
R:reel
D:Altan
N:Learned from Kira Ott (through sheet music)
Z:Kira Ott
N:Set is The Curlew - McDermott's - Three Scones of Boxty - ~.
K:D
|:D2FD GDFE|D2FA d2ef|geag efd=c|AGG2 EFGE|
D2FD GDFE|D2FA d2ef|geag edcd|1 eddc dBAF:|2 eddc d3g|
|:fdfa g2ag|fdfa g2ag|fd=cA BGG2|ABcA dcAg|
fdfa g2ag|fdfa g2ag|fd=cA BGG2|1 ABcA d3g:|2 ABcA dBAF||
